symbolic/64x64/apps/modelsim.svg

<svg xmlns="http://www.w3.org/2000/svg" width="64" height="64" version="1">
 <path style="opacity:0.2" d="m 9.5,4.9996663 a 5.50055,5.50055 0 1 0 0,10.9999997 h 45 a 5.50055,5.50055 0 1 0 0,-10.9999997 z M 54.337891,19.003572 a 5.50055,5.50055 0 0 0 -4.289063,2.265625 L 32,46.136385 13.951172,21.269197 A 5.50055,5.50055 0 0 0 4,24.499666 v 31 a 5.50055,5.50055 0 1 0 11,0 V 41.441072 l 12.548828,17.289063 a 5.50055,5.50055 0 0 0 8.902344,0 L 49,41.441072 v 14.058594 a 5.50055,5.50055 0 1 0 11,0 v -31 a 5.50055,5.50055 0 0 0 -5.662109,-5.496094 z"/>
 <path style="fill:none;stroke:#4f4f4f;stroke-width:11;stroke-linecap:round;stroke-linejoin:round" d="m 9.5,54.5 v -31 l 22.5,31 22.5,-31 v 31"/>
 <path style="fill:none;stroke:#3f51b5;stroke-width:11;stroke-linecap:round;stroke-linejoin:round" d="m 9.5,9.5 h 45"/>
 <path style="opacity:0.1;fill:#ffffff" d="M 9.5 4 A 5.50055 5.50055 0 0 0 3.9492188 9.9785156 A 5.50055 5.50055 0 0 1 9.5 5 L 54.5 5 A 5.50055 5.50055 0 0 1 60.050781 10.019531 A 5.50055 5.50055 0 0 0 54.5 4 L 9.5 4 z M 54.337891 18.003906 A 5.50055 5.50055 0 0 0 50.048828 20.269531 L 32 45.136719 L 13.951172 20.269531 A 5.50055 5.50055 0 0 0 4 23.5 L 4 24.427734 A 5.50055 5.50055 0 0 1 13.951172 21.269531 L 32 46.136719 L 50.048828 21.269531 A 5.50055 5.50055 0 0 1 54.337891 19.003906 A 5.50055 5.50055 0 0 1 60 24.5 L 60 23.5 A 5.50055 5.50055 0 0 0 54.337891 18.003906 z"/>
</svg>

<svg xmlns="http://www.w3.org/2000/svg" width="64" height="64" version="1"><path style="opacity:.2" d="M9.5 5a5.5 5.5 0 1 0 0 11h45a5.5 5.5 0 1 0 0-11zm44.838 14.004a5.5 5.5 0 0 0-4.29 2.265L32 46.136 13.951 21.27A5.5 5.5 0 0 0 4 24.5v31a5.5 5.5 0 1 0 11 0V41.442l12.549 17.29a5.5 5.5 0 0 0 8.902 0L49 41.44V55.5a5.5 5.5 0 1 0 11 0v-31a5.5 5.5 0 0 0-5.662-5.496z"/><path style="fill:none;stroke:#4f4f4f;stroke-width:11;stroke-linecap:round;stroke-linejoin:round" d="M9.5 54.5v-31l22.5 31 22.5-31v31"/><path style="fill:none;stroke:#3f51b5;stroke-width:11;stroke-linecap:round;stroke-linejoin:round" d="M9.5 9.5h45"/><path style="opacity:.1;fill:#fff" d="M9.5 4a5.5 5.5 0 0 0-5.55 5.979A5.5 5.5 0 0 1 9.5 5h45a5.5 5.5 0 0 1 5.55 5.02A5.5 5.5 0 0 0 54.5 4h-45zm44.838 14.004a5.5 5.5 0 0 0-4.29 2.266L32 45.137 13.951 20.27A5.5 5.5 0 0 0 4 23.5v.928a5.5 5.5 0 0 1 9.951-3.158L32 46.137 50.049 21.27a5.5 5.5 0 0 1 4.289-2.266A5.5 5.5 0 0 1 60 24.5v-1a5.5 5.5 0 0 0-5.662-5.496z"/></svg>
